X: 1
T: Red Hills Polka
R: polka
Z: 2020 John Chambers <jc:trillian.mit.edu>
M: C|
L: 1/8
K: D
e2 |:\
f2dd d2AA | B2A2 F2A2 | f2dd d2AA | B2A2 F2A2 |\
a2gf e4 | a2gf e2a2- |1 a2a2 ^g2a2 | b2a2 ^g2a2 :|2 a2g2 f2e2 | d4 ||
F2G2 |\
A2AA A2AA | B2A2 F2A2 | d2dd d2cd | e2d2 c2d2 |\
c2cc c2AA | B2A2 F2A2 | d3e  d2B2 | A4 ||
F2G2 |\
A2AA A2AA | B2A2 F2A2 | d3d d2e2 | d8 |\
a2gf e2a2- | a2gf e2a2- | a2g2 f2e2 | d4 z2 |]
